img/icons/svg/icon__vk.svg

<svg width="15" height="15" viewBox="0 0 15 15" fill="none" xmlns="http://www.w3.org/2000/svg">
<g clip-path="url(#clip0)">
<path d="M14.8663 10.8545C14.826 10.787 14.5766 10.2451 13.3765 9.13122C12.1202 7.96488 12.2889 8.15427 13.8022 6.13756C14.7238 4.90935 15.0923 4.15929 14.9769 3.83864C14.8672 3.53299 14.1894 3.61362 14.1894 3.61362L11.9355 3.62675C11.9355 3.62675 11.7686 3.60425 11.6439 3.67832C11.5229 3.75145 11.4451 3.92021 11.4451 3.92021C11.4451 3.92021 11.0879 4.8709 10.6116 5.67909C9.60748 7.38453 9.20527 7.47453 9.04119 7.36859C8.6596 7.12201 8.75523 6.37664 8.75523 5.84785C8.75523 4.19492 9.00556 3.5058 8.26676 3.32767C8.02112 3.2686 7.8411 3.22922 7.21387 3.22266C6.40943 3.21422 5.72782 3.22547 5.34248 3.41392C5.08559 3.53956 4.88776 3.81989 5.0087 3.83583C5.15778 3.85552 5.4953 3.92677 5.67438 4.17054C5.90596 4.48463 5.89752 5.19155 5.89752 5.19155C5.89752 5.19155 6.03066 7.13701 5.58718 7.3789C5.28247 7.54485 4.86526 7.20639 3.96988 5.65846C3.51141 4.86622 3.16451 3.98959 3.16451 3.98959C3.16451 3.98959 3.09794 3.82645 2.97887 3.73926C2.83448 3.63331 2.63197 3.59956 2.63197 3.59956L0.488683 3.61269C0.488683 3.61269 0.167097 3.62206 0.0489629 3.76176C-0.0560448 3.88646 0.0405248 4.14335 0.0405248 4.14335C0.0405248 4.14335 1.71877 8.06895 3.61829 10.0482C5.36123 11.8624 7.3395 11.7433 7.3395 11.7433H8.23582C8.23582 11.7433 8.50678 11.7133 8.6446 11.5642C8.77211 11.4273 8.76742 11.1704 8.76742 11.1704C8.76742 11.1704 8.74961 9.96753 9.3084 9.79033C9.85875 9.61594 10.5657 10.9529 11.3148 11.4676C11.8811 11.8567 12.3114 11.7714 12.3114 11.7714L14.315 11.7433C14.315 11.7433 15.3632 11.6786 14.8663 10.8545Z" fill="white"/>
</g>
<defs>
<clipPath id="clip0">
<rect width="15" height="15" fill="white"/>
</clipPath>
</defs>
</svg>

<svg width="15" height="15" viewBox="0 0 15 15" fill="none" xmlns="http://www.w3.org/2000/svg"><g clip-path="url(#clip0)"><path d="M14.866 10.854c-.04-.067-.29-.609-1.49-1.723-1.256-1.166-1.087-.977.426-2.993.922-1.229 1.29-1.979 1.175-2.3-.11-.305-.788-.224-.788-.224l-2.254.013s-.166-.023-.291.051c-.121.073-.199.242-.199.242s-.357.95-.833 1.76c-1.005 1.705-1.407 1.795-1.57 1.689-.382-.247-.287-.992-.287-1.521 0-1.653.25-2.342-.488-2.52-.246-.06-.426-.099-1.053-.105-.805-.009-1.486.002-1.872.19-.256.127-.454.407-.333.423.149.02.486.09.665.335.232.314.224 1.02.224 1.02s.133 1.946-.31 2.188c-.306.166-.723-.173-1.618-1.72-.459-.793-.805-1.67-.805-1.67s-.067-.163-.186-.25a.941.941 0 00-.347-.14l-2.143.014s-.322.01-.44.149c-.105.124-.008.381-.008.381s1.678 3.926 3.577 5.905c1.743 1.814 3.722 1.695 3.722 1.695h.896s.27-.03.409-.179c.127-.137.122-.394.122-.394s-.017-1.202.541-1.38c.55-.174 1.258 1.163 2.007 1.678.566.389.996.303.996.303l2.004-.028s1.048-.064.551-.889z" fill="#fff"/></g><defs><clipPath id="clip0"><path fill="#fff" d="M0 0h15v15H0z"/></clipPath></defs></svg>
